raw/symbols/comp.svg

<svg width="42" height="42" viewBox="0 0 42 42" fill="none" xmlns="http://www.w3.org/2000/svg">
<path d="M21 42C32.5983 42 42 32.5983 42 21C42 9.4017 32.5983 0 21 0C9.4017 0 0 9.4017 0 21C0 32.5983 9.4017 42 21 42Z" fill="#60D09A"/>
<path fill-rule="evenodd" clip-rule="evenodd" d="M12.1318 28.0403C11.5039 27.656 11.1196 26.9735 11.1196 26.2385V22.1351C11.1196 21.6479 11.5165 21.2531 12.0037 21.2552C12.1591 21.2552 12.3124 21.2972 12.4468 21.3749L21.7057 26.774C22.2475 27.089 22.5814 27.6686 22.5814 28.2965V32.5469C22.5835 33.1307 22.111 33.6053 21.5272 33.6053C21.3319 33.6053 21.1387 33.5507 20.9728 33.4499L12.1318 28.0403ZM25.933 20.2514C26.4748 20.5664 26.8066 21.1481 26.8087 21.7739V30.4007C26.8087 30.6548 26.6722 30.89 26.4496 31.0139L24.4231 32.1542C24.3979 32.1689 24.3706 32.1794 24.3412 32.1878V27.3977C24.3412 26.7782 24.0157 26.2028 23.4823 25.8836L15.3511 21.02V15.6125C15.3511 15.1253 15.748 14.7305 16.2352 14.7326C16.3906 14.7326 16.5439 14.7746 16.6783 14.8523L25.933 20.2514ZM29.986 13.88C30.5299 14.195 30.8638 14.7767 30.8638 15.4046V28.0046C30.8617 28.2629 30.7189 28.5002 30.4921 28.6241L28.5706 29.6615V20.8898C28.5706 20.2703 28.2451 19.697 27.7159 19.3778L19.4041 14.3924V9.26421C19.4041 9.10881 19.4461 8.95551 19.5217 8.82111C19.7674 8.40111 20.3071 8.25831 20.7271 8.50191L29.986 13.88Z" fill="#F3F3F3"/>
</svg>

<svg xmlns="http://www.w3.org/2000/svg" width="42" height="42" fill="none"><path fill="#60D09A" d="M21 42c11.598 0 21-9.402 21-21S32.598 0 21 0 0 9.402 0 21s9.402 21 21 21Z"/><path fill="#F3F3F3" fill-rule="evenodd" d="M12.132 28.04a2.114 2.114 0 0 1-1.012-1.802v-4.103a.88.88 0 0 1 1.327-.76l9.259 5.399c.541.315.875.895.875 1.523v4.25a1.054 1.054 0 0 1-1.608.903l-8.841-5.41Zm13.801-7.789c.542.315.874.897.876 1.523V30.4c0 .254-.137.489-.36.613l-2.026 1.14a.353.353 0 0 1-.082.034v-4.79c0-.62-.325-1.195-.859-1.514l-8.13-4.864v-5.407a.88.88 0 0 1 1.326-.76l9.255 5.398Zm4.053-6.371c.544.315.878.897.878 1.525v12.6a.714.714 0 0 1-.372.62l-1.921 1.037V20.89c0-.62-.326-1.193-.855-1.512l-8.312-4.986V9.264c0-.155.042-.308.118-.443a.884.884 0 0 1 1.205-.32l9.259 5.379Z" clip-rule="evenodd"/></svg>
